!!!OTL@@DE: Das Feuerlied
!!!COM: Arndt, Ernst Moritz
!!!ODT: 1817
!!!OMD: Heiter und mit Ausdruck
!!!LYR: Arndt, Ernst Moritz
!!!LDT: 1817
!!!OCL: Erk, Ludwig
!!!GCO: Deutscher Liederschatz, Band 3
**kern	**kern	**kern
*staff3	*staff2	*staff1
*Ipiano	*Ipiano	*Ivox
*>[A,B,B]	*>[A,B,B]	*>[A,B,B]
*>norep[A,B]	*>norep[A,B]	*>norep[A,B]
*>A	*>A	*>A
*clefF4	*clefG2	*clefG2
*k[b-]	*k[b-]	*k[b-]
*F:	*F:	*F:
*met(C)	*met(C)	*met(C)
*M4/4	*M4/4	*M4/4
*MM118	*MM118	*MM118
*^	*	*
8F/	8F\L	8a/ 8cc/L	8cc\
4c/	(8E\	(8a/ 8cc/	8cc\
.	8C\J)	8g/) 8b-/J	8b-\
=1	=1	=1	=1
2c/	4F\	4.f/ 4.a/	4.a/
.	4A\	.	.
.	.	8f/ 8a/	8a/
4.c/	4c\	4.f/ 4.a/	4.a/
.	4F\	.	.
8c/	.	8f/ 8a/	8a/
=2	=2	=2	=2
4c/	4C\	(8a/ 8cc/L	8cc\L
.	.	8g/) 8b-/J	8b-\J
4c/	4C\	4g/ 4b-/	4b-\
4G/	4E\	8r	8r
.	.	8g/ 8b-/L	8b-\
4A/	4F\	(8g/ 8b-/	8b-\
.	.	8f/) 8a/J	8a/
=3	=3	=3	=3
*	*	*^	*
(4c/	2.C\	4.e/	4.g/	4.g/
4B-/	.	.	.	.
.	.	8e/	8g/	8g/
4A/)	.	4.cc/	4f\	4.cc\
4G/	4C\	.	4e\	.
.	.	8b-/	.	8b-\
*	*	*v	*v	*
=4	=4	=4	=4
*	*	*^	*
2A/	2F\	2c/	2f/ 2a/	2a/
8ryy	8r	8r	8ryy	8r
8F/	8F\L	8cc/L	8c\ 8a\	8cc\
4G/	(8E\	(8cc/	4c\ 4g\	8cc\
.	8C\J)	8b-/J)	.	8b-\
=5	=5	=5	=5	=5
4A/	4F\	4.f/ 4.a/	4.c\	4.a/
4A/	4F\	.	.	.
.	.	8f/ 8a/	8c\	8a/
4F/	4D\	4.f/ 4.a/	4.d\	4.a/
4A/	4D\	.	.	.
.	.	8f/ 8a/	8d\	8a/
=6	=6	=6	=6	=6
4D/	4BB-\	(8cc/L	4d\ 4g\	8cc\L
.	.	8b-/J)	.	8b-\J
4G/	4GG\	4b-/	4d\ 4g\	4b-\
4G/	8r	8r	8d\	8r
.	8G\L	8g/	8b-/L	8b-\
4D/	(8BB-\	8g/ (8b-/	4d\	8b-\
.	8BBn\J)	8f/ 8a/J)	.	8a/
=7	=7	=7	=7	=7
4G/	4.C\	4f\	4.g/	4.g/
(8G/L	.	8e\L	.	.
8F/J	8C\)	8d\J	8g/	8g/
4E/	4C'\	4c\	4.cc/	4.cc\
4G/	4C\	4e\	.	.
.	.	.	8b/	8b-\
*	*	*v	*v	*
=8	=8	=8	=8
2F/	2FF\	2c/ 2f/ 2a/	2a/
*v	*v	*	*
8r	8r	8r
=!|:	=!|:	=!|:
*>B	*>B	*>B
*^	*	*
8F/L	8F\	8f/ 8a/ 8cc/L	8cc\
8F/	4F\	8f/ 8a/ 8cc/	8cc\
8A/J	.	8f/ 8cc/J	8cc\
=9	=9	=9	=9
4B-/	4BB-\ 4F\	4.d/ 4.f/ 4.dd/	4.dd\
8B-/L	4B-\	.	.
8d/J	.	8f/ 8b-/	8b-\
4c/	4B-\	4.e/ 4.g/ 4.ee/	4.ee\
4c/	4B-\	.	.
.	.	8e/ 8g/ 8cc/	8cc\
=10	=10	=10	=10
2c/	2A\	2f\ 2cc\ 2ff\	2ff\
8ryy	8r	8r	8r
8d/	8B-\L	8f/ 8dd/L	8dd\
4B-/	8B-\	8d/ 8f/ 8dd/	8dd\
.	8BB-\J	8f/ 8dd/J	8dd\
=11	=11	=11	=11
4.A/	4C\	4.c/ 4.f/ 4.cc/	4.cc\
.	4C\	.	.
8A/	.	8c/ 8f/	8f/
2C/	4C\	4c/ 4f/ 4a/	4a/
.	4CC\	4B-/ 4e/ 4g/	4g/
=12	=12	=12	=12
2C/	2FF\	2A/ 2f/	2f/
*v	*v	*	*
8r	8r	8r
==:|!	==:|!	==:|!
*-	*-	*-
!!!ENC: Craig Stuart Sapp
!!!END: 2004/05/21/
!!!EFL: 411/600
